X: 1
T:Haymaker's Jig
M:6/8
R:Jig
Z:As played by the CHB
K:D
{ag}fdd cAA|BGG A2G|FAd def|gfg e3|\
{ag}fdd cAA|BGG A2G|FAd def|1 gec d3:|2 gec d2A|:\
FAA Add|FAA B2G|FAA def|gfg e3|\
{ag}fdd cAA|BGG A2G|FAd def|gec d3:|
